X:1
T:No One Like My Savior
T:No One Like My Savior
T:E. E. Satterlee
T:Eliza Edmunds Hewitt, 1900
T:Public Domain Courtesy of the Cyber Hymnal™
T:Public Domain Courtesy of the Cyber Hymnal™
C:E. E. Satterlee
Z:Public Domain
Z:Courtesy of the Cyber Hymnal™
%%score 1 2
L:1/8
Q:1/4=90
M:4/4
K:A
V:1 treble 
V:2 bass 
V:1
 [CE] | [CE][CE] [CA]>[DB] [Ec] [Ec]2 [CA] | [Fd][FA] [FA]>[=FB] [Ec]3 [Ec] | %3
w: 1.~There’s|no one like my Sav- ior, No|friend can be like Him; My|
w: 2.~There’s|no one like my Sav- ior; In|sea- sons of dis- tress, He|
w: 3.~There’s|no one like my Sav- ior, He|par- dons all my sin; And|
w: 4.~There’s|no one like my Sav- ior; Come|now, and find it true; He|
 [Ec][DB] [DE]>[Ec] [DB] [CA]2 [EG] | [DF][DB] [^DB]>[Dc] [EB]3 [=DE] | %5
w: ne- ver fail- ing sun- shine When|earth- ly lights grow dim; When|
w: draws me clos- er to Him, To|com- fort and to bless; He|
w: gives Hsis Ho- ly Spir- it, A|spring- ing well with- in; He|
w: gave His life a ran- som, His|blood was shed for you; Then|
 [CE][CE] [CA]>[DB] [Ec] [Ec]2 [CA] | [Fd][Fd] [FA]>[=FB] [Ec]3 [Ec] | %7
w: sum- mer flowers are bloom- ing, The|bright- ness of my joy, O,|
w: gives me, in temp- ta- tion, The|strength of His right arm; His|
w: leads me out to ser- vice, With|gen- tle touch and mild; O,|
w: when we reach the ci- ty Of|ev- er- last- ing light, We’ll|
 [Ee][Ee][Ed][Ec] [FB] [FA]2 [DF] | [CE][Ec] [Ec]>[DB] [CA]3 z || %9
w: may His hap- py ser- vice My|heart and life em- ploy!|
w: an- gels camp a- round me, To|keep me from all harm.|
w: won- der of all won- ders, That|I should be His child.|
w: sing with saints and an- gels, All|hon- or, power and might.|
"^Refrain" [Ac]2 [Ae]2 [Ae]2 [Ac]2 | [FB][FA][EG][DF] [CE]2 [CA]2 | [Ac]2 [Ae]2 [Ae]2 [Ac]2 | %12
w: |||
w: |||
w: |||
w: |||
 [Ac][AB][AB][Ac] [GB]4 | [Ac]2 [Ae]2 [Ae]2 [Ac]2 | [FB][FA][EG][DF] [CE]2 [CA]2 | %15
w: |||
w: |||
w: |||
w: |||
 [Ec]2 [=Ge]2 [Fd]2 [FB]2 |"^riten." [EA][DG][DF][DG] [CA]4 |] %17
w: ||
w: ||
w: ||
w: ||
V:2
 [A,,A,] | [A,,A,][A,,A,] [A,,E,]>[A,,E,] [A,,A,] [A,,A,]2 [A,,A,] | %2
w: ~|~ ~ ~ ~ ~ ~ ~|
 [A,,A,][A,,A,] [A,,A,]>[A,,A,] [A,,A,]3 [A,,A,] | %3
w: ~ ~ ~ ~ ~ ~|
 [E,G,][E,G,] [E,G,]>[E,G,] [A,,A,] [A,,A,]2 [C,A,] | [D,A,][D,F,] [B,,F,]>[B,,F,] [E,G,]3 [E,G,] | %5
w: ~ ~ ~ ~ ~ ~ ~|~ ~ ~ ~ ~ ~|
 [A,,A,][A,,A,] [A,,E,]>[A,,E,] [A,,A,] [A,,A,]2 [A,,A,] | %6
w: ~ ~ ~ ~ ~ ~ ~|
 [A,,A,][A,,A,] [A,,A,]>[A,,A,] [A,,A,]3 [A,,A,] | %7
w: ~ ~ ~ ~ ~ ~|
 [C,A,][C,A,][B,,G,][A,,A,] [D,A,] [D,A,]2 [D,A,] | [E,A,][E,A,] [E,G,]>[E,G,] [A,,A,]3 z || %9
w: ~ ~ ~ ~ ~ ~ ~|~ ~ ~ ~ ~|
 [A,E]2 [A,C]2 [A,C]2 [A,E]2 | [D,D][D,D][D,A,][D,A,] [A,,A,]2 [A,,A,]2 | %11
w: No one, no one|like my pre- cious Sav- ior,|
 [A,E]2 [A,C]2 [A,C]2 [A,E]2 | [B,^D][B,D][B,D][B,D] [E,E]4 | [A,E]2 [A,C]2 [A,C]2 [A,E]2 | %14
w: No one, no one|such a friend can be;|No one, no one|
 [D,D][D,D][D,A,][D,A,] [A,,A,]2 [A,,A,]2 | [A,,A,]2 [C,A,]2 [D,A,]2 [D,D]2 | %16
w: like my pre- cious Sav- ior,|Glo- ry, glo- ry,|
 [E,C][E,B,][E,A,][E,B,] [A,,A,]4 |] %17
w: Je- sus cares for me.|

